icon/fa/hands-holding-child.svg

<svg xmlns="http://www.w3.org/2000/svg" viewBox="0 0 640 512"><!--! Font Awesome Free 6.1.2 by @fontawesome - https://fontawesome.com License - https://fontawesome.com/license/free (Icons: CC BY 4.0, Fonts: SIL OFL 1.1, Code: MIT License) Copyright 2022 Fonticons, Inc.--><path d="M279.1 40c0-22.09 18.8-40 40-40 23 0 40.9 17.91 40.9 40s-17.9 40-40.9 40c-21.2 0-40-17.91-40-40zm96.7 213c1.7 13.2-7.7 25.2-21.7 26.8-12.3 1.7-24.3-7.7-25.9-21.7l-4.4-35h-7.6l-4.4 35c-1.6 14-13.6 23.4-26.8 21.7-13.1-1.6-22.5-13.6-20.8-26.8l11.1-88.7-19.8 15.8c-10.1 9.5-25.3 8.2-33.8-1.9-8.6-10.2-7.3-25.3 2.8-33.9l27.9-23.6C271.3 104.8 295.3 96 320 96c24.7 0 48.7 8.8 67.6 24.7l27.9 23.6c10.1 8.6 11.4 23.7 2.8 33.9-8.5 10.1-23.7 11.4-33.8 1.9l-19.8-15.8 11.1 88.7zM39.1 64c22.99 0 40 17.91 40 40v160.2c0 17 7.64 33.3 19.64 45.3l51.06 51.1c8.3 8.3 21.3 9.5 31 3.1 12.9-8.7 14.7-26.9 3.8-37.9l-47.2-47.2c-12.5-12.5-12.5-32.7 0-45.2s32.7-12.5 45.2 0l72.6 72.5c21 21 32.8 49.5 32.8 79.2V464c0 26.5-21.5 48-48 48h-66.7c-17 0-33.3-6.7-45.3-18.7l-99.88-99.9C10.11 375.4 0 350.1 0 325.5V104c0-22.09 17.91-40 40-40h-.9zM640 104v221.5c0 24.6-10.1 49.9-28.1 67.9L512 493.3c-12.9 12-28.3 18.7-45.3 18.7H400c-26.5 0-48-21.5-48-48v-78.9c0-29.7 11.8-58.2 32.8-79.2l72.6-72.5c12.5-12.5 32.7-12.5 45.2 0s12.5 32.7 0 45.2l-47.2 47.2c-10.9 11-9.1 29.2 3.8 37.9 9.7 6.4 22.7 5.2 31-3.1l51.1-51.1c12-12 18.7-28.3 18.7-45.3V103.1c0-21.19 17.9-40 40-40s40 18.81 40 40v.9z"/></svg>

<svg xmlns="http://www.w3.org/2000/svg" viewBox="0 0 640 512" height="1em" width="1em">
<!--! Font Awesome Free 6.1.2 by @fontawesome - https://fontawesome.com License - https://fontawesome.com/license/free (Icons: CC BY 4.0, Fonts: SIL OFL 1.1, Code: MIT License) Copyright 2022 Fonticons, Inc.-->
  <path d="M279.1 40C279.1 17.91 297.9 0 319.1 0C342.1 0 360 17.91 360 40C360 62.09 342.1 80 319.1 80C297.9 80 279.1 62.09 279.1 40zM375.8 253C377.5 266.2 368.1 278.2 354.1 279.8C341.8 281.5 329.8 272.1 328.2 258.1L323.8 223.1H316.2L311.8 258.1C310.2 272.1 298.2 281.5 285 279.8C271.9 278.2 262.5 266.2 264.2 253L275.3 164.3L255.5 180.1C245.4 189.6 230.2 188.3 221.7 178.2C213.1 168 214.4 152.9 224.5 144.3L252.4 120.7C271.3 104.8 295.3 96 320 96C344.7 96 368.7 104.8 387.6 120.7L415.5 144.3C425.6 152.9 426.9 168 418.3 178.2C409.8 188.3 394.6 189.6 384.5 180.1L364.7 164.3L375.8 253zM39.1 64C62.09 64 79.1 81.91 79.1 104V264.2C79.1 281.2 86.74 297.5 98.74 309.5L149.8 360.6C158.1 368.9 171.1 370.1 180.8 363.7C193.7 355 195.5 336.8 184.6 325.8L137.4 278.6C124.9 266.1 124.9 245.9 137.4 233.4C149.9 220.9 170.1 220.9 182.6 233.4L255.2 305.9C276.2 326.9 288 355.4 288 385.1V464C288 490.5 266.5 512 240 512H173.3C156.3 512 140 505.3 128 493.3L28.12 393.4C10.11 375.4 0 350.1 0 325.5V104C0 81.91 17.91 64 40 64L39.1 64zM640 104V325.5C640 350.1 629.9 375.4 611.9 393.4L512 493.3C499.1 505.3 483.7 512 466.7 512H400C373.5 512 352 490.5 352 464V385.1C352 355.4 363.8 326.9 384.8 305.9L457.4 233.4C469.9 220.9 490.1 220.9 502.6 233.4C515.1 245.9 515.1 266.1 502.6 278.6L455.4 325.8C444.5 336.8 446.3 355 459.2 363.7C468.9 370.1 481.9 368.9 490.2 360.6L541.3 309.5C553.3 297.5 560 281.2 560 264.2V103.1C560 81.91 577.9 63.1 600 63.1C622.1 63.1 640 81.91 640 103.1L640 104z"/>
</svg>
